X:15
T:Cooley's Reel
S:Bernie Waugh
R:Reel
M:4/4
L:1/8
K:E minor
|:\
"Em"EB~BAB2EB|~B2AB dBAG|"D"(3FED AD BDAD|FDFA dAFD|
"Em"EB~BAB2EB|"C"~B2AB defg|\
"Am"(3agf (3gfe dBAF|1"D"DEFD "Em"EGFD:|2\
"D"DEFD "Em"Egfg||
|:\
"Em"eB (3BBB eBgB|eB (3BBB gedB|"D"~A2 FA BAFB|ADFA B^cdf|
"Em"eB (3BBB efgf|"C"eB (3BBB defg|\
"Am"(3agf (3gfe dBAF|1"D"DEFD "Em"Egfg:|2\
"D"DEFD "Em"EGFD|]

